Libraries/Atlas.Resources/Icons/svg/padnote.svg

<?xml version="1.0" encoding="UTF-8" standalone="no" ?>
<!DOCTYPE svg PUBLIC "-//W3C//DTD SVG 1.1//EN" "http://www.w3.org/Graphics/SVG/1.1/DTD/svg11.dtd">
<svg xmlns="http://www.w3.org/2000/svg" xmlns:xlink="http://www.w3.org/1999/xlink" version="1.1" width="24" height="24" viewBox="0 0 640 640" xml:space="preserve">
<desc>Created with Fabric.js 4.6.0</desc>
<defs>
</defs>
<g transform="matrix(4.96 0 0 4.81 319.74 345.98)" id="BhQ8u-pCZ1NE9S41NQymP"  >
<g style="" vector-effect="non-scaling-stroke"   >
		<g transform="matrix(1 0 0 1 0 -5.5)" id="R6j65XGcvSEXK9ThGhF9c"  >
<path style="stroke: none; stroke-width: 1; stroke-dasharray: none; stroke-linecap: butt; stroke-dashoffset: 0; stroke-linejoin: miter; stroke-miterlimit: 4; fill: rgb(0,0,0); fill-rule: nonzero; opacity: 1;" vector-effect="non-scaling-stroke"  transform=" translate(-64.5, -59)" d="M 90 -4 L 40.9 -4 C 38.6 -4 36.8 -2.2 36.8 0.09999999999999964 L 36.8 5.8 L 18.7 5.8 C 16.4 5.8 14.6 7.6 14.6 9.899999999999999 L 14.6 117.9 C 14.6 120.2 16.4 122 18.7 122 L 110.3 122 C 112.6 122 114.39999999999999 120.2 114.39999999999999 117.9 L 114.39999999999999 9.9 C 114.39999999999999 7.6000000000000005 112.6 5.800000000000001 110.3 5.800000000000001 L 94.1 5.800000000000001 L 94.1 0.1 C 94.1 -2.2 92.3 -4 90 -4 z M 45 9.9 L 45 4.2 L 85.9 4.2 L 85.9 9.9 L 85.9 17.1 L 45 17.1 L 45 9.9 z M 106.2 14 L 106.2 113.8 L 22.8 113.8 L 22.8 14 L 36.8 14 L 36.8 21.2 C 36.8 23.5 38.599999999999994 25.299999999999997 40.9 25.299999999999997 L 90 25.299999999999997 C 92.3 25.299999999999997 94.1 23.499999999999996 94.1 21.199999999999996 L 94.1 14 L 106.2 14 z" stroke-linecap="round" />
</g>
		<g transform="matrix(1 0 0 1 0.95 6.6)" id="7UjTB41BLY0tUwr8aPCAz"  >
<path style="stroke: none; stroke-width: 1; stroke-dasharray: none; stroke-linecap: butt; stroke-dashoffset: 0; stroke-linejoin: miter; stroke-miterlimit: 4; fill: rgb(0,0,0); fill-rule: nonzero; opacity: 1;" vector-effect="non-scaling-stroke"  transform=" translate(-65.45, -71.1)" d="M 95 67 L 35.9 67 C 33.6 67 31.799999999999997 68.8 31.799999999999997 71.1 C 31.799999999999997 73.39999999999999 33.599999999999994 75.19999999999999 35.9 75.19999999999999 L 95 75.19999999999999 C 97.3 75.19999999999999 99.1 73.39999999999999 99.1 71.1 C 99.1 68.8 97.3 67 95 67 z" stroke-linecap="round" />
</g>
		<g transform="matrix(1 0 0 1 -13.85 26.4)" id="ouwr_0xXpzIrpaZI36V8r"  >
<path style="stroke: none; stroke-width: 1; stroke-dasharray: none; stroke-linecap: butt; stroke-dashoffset: 0; stroke-linejoin: miter; stroke-miterlimit: 4; fill: rgb(0,0,0); fill-rule: nonzero; opacity: 1;" vector-effect="non-scaling-stroke"  transform=" translate(-50.65, -90.9)" d="M 65.5 86.8 L 35.9 86.8 C 33.6 86.8 31.799999999999997 88.6 31.799999999999997 90.89999999999999 C 31.799999999999997 93.19999999999999 33.599999999999994 94.99999999999999 35.9 94.99999999999999 L 65.4 94.99999999999999 C 67.7 94.99999999999999 69.5 93.19999999999999 69.5 90.89999999999999 C 69.5 88.6 67.7 86.8 65.5 86.8 z" stroke-linecap="round" />
</g>
		<g transform="matrix(1 0 0 1 0.95 -13.3)" id="H7_pPtAw_NZ0RPNQnqKMC"  >
<path style="stroke: none; stroke-width: 1; stroke-dasharray: none; stroke-linecap: butt; stroke-dashoffset: 0; stroke-linejoin: miter; stroke-miterlimit: 4; fill: rgb(0,0,0); fill-rule: nonzero; opacity: 1;" vector-effect="non-scaling-stroke"  transform=" translate(-65.45, -51.2)" d="M 31.8 51.2 C 31.8 53.5 33.6 55.300000000000004 35.9 55.300000000000004 L 95 55.300000000000004 C 97.3 55.300000000000004 99.1 53.50000000000001 99.1 51.2 C 99.1 48.9 97.3 47.1 95 47.1 L 35.9 47.1 C 33.6 47.1 31.799999999999997 49 31.799999999999997 51.2 z" stroke-linecap="round" />
</g>
</g>
</g>
</svg>

<?xml version='1.0' encoding='utf-8'?>
<svg version="1.1" xmlns="http://www.w3.org/2000/svg" viewBox="0 0 129 129" xmlns:xlink="http://www.w3.org/1999/xlink" enable-background="new 0 0 129 129">
  <g>
    <g>
      <path d="M90-4H40.9c-2.3,0-4.1,1.8-4.1,4.1v5.7H18.7c-2.3,0-4.1,1.8-4.1,4.1v108c0,2.3,1.8,4.1,4.1,4.1h91.6    c2.3,0,4.1-1.8,4.1-4.1V9.9c0-2.3-1.8-4.1-4.1-4.1H94.1V0.1C94.1-2.2,92.3-4,90-4z M45,9.9V4.2h40.9v5.7v7.2H45V9.9z M106.2,14    v99.8H22.8V14h14v7.2c0,2.3,1.8,4.1,4.1,4.1H90c2.3,0,4.1-1.8,4.1-4.1V14H106.2z"/>
      <path d="M95,67H35.9c-2.3,0-4.1,1.8-4.1,4.1c0,2.3,1.8,4.1,4.1,4.1H95c2.3,0,4.1-1.8,4.1-4.1C99.1,68.8,97.3,67,95,67z"/>
      <path d="m65.5,86.8h-29.6c-2.3,0-4.1,1.8-4.1,4.1s1.8,4.1 4.1,4.1h29.5c2.3,0 4.1-1.8 4.1-4.1s-1.8-4.1-4-4.1z"/>
      <path d="m31.8,51.2c0,2.3 1.8,4.1 4.1,4.1h59.1c2.3,0 4.1-1.8 4.1-4.1s-1.8-4.1-4.1-4.1h-59.1c-2.3,0-4.1,1.9-4.1,4.1z"/>
    </g>
  </g>
</svg>
